src/build/icons/LineIcons/group.svg

<svg width="32px" height="32px" viewBox="0 0 32 32" version="1.1" xmlns="http://www.w3.org/2000/svg" xmlns:xlink="http://www.w3.org/1999/xlink">
    <g id="Page-1" stroke="none" stroke-width="1" fill="none" fill-rule="evenodd">
        <g id="Artboard" transform="translate(-12.000000, -11.000000)">
            <g id="PR" transform="translate(12.000000, 11.000000)">
                <rect id="Rectangle" stroke="#FAFAFA" x="0.5" y="0.5" width="31" height="31" rx="3"></rect>
                <path d="M24.0734066,19.0487904 C23.8114286,18.7473475 22.992967,18.8260292 22.7301099,19.128494 L22.7301099,21.9446867 L19.2136264,21.9446867 L16.1059341,17 L15,18.666622 L18.3345055,23.8953805 L22.7301099,23.8953805 L22.7301099,26.8301067 C22.992967,27.1315497 23.8114286,26.9976886 24.0734066,26.6952238 L27.8035165,23.4181809 C28.0654945,23.1167379 28.0654945,22.6282981 27.8035165,22.3258333 L24.0734066,19.0487904 L24.0734066,19.0487904 Z M22.6704699,9.74836885 L22.6704699,12.3022611 C22.9363018,12.5815931 23.764026,12.6984565 24.0289689,12.4191245 L27.8012929,9.37212578 C28.0662357,9.0908936 28.0662357,8.63579151 27.8012929,8.35550943 L24.0289689,5.30756058 C23.764026,5.0272785 22.9363018,4.86576001 22.6704699,5.14604209 L22.6704699,7.84815136 L18.2251199,7.84815136 L8.44534998,22.0997825 L4.88907,22.0997825 C4.39741429,22.0997825 4,22.4541731 4,22.9738826 C4,23.4926419 4.39741429,24 4.88907,24 L9.33441997,24 L19.1141899,9.74836885 L22.6704699,9.74836885 L22.6704699,9.74836885 Z M4.92156461,10.0579156 L8.60782306,10.0579156 L11.8406717,15 L13,13.3217698 C13,13.3217698 9.76346508,8.33235337 9.52938767,8 L4.92156461,8 C4.41193938,8 4,8.54946347 4,9.11127444 C4,9.67411436 4.41193938,10.0579156 4.92156461,10.0579156 L4.92156461,10.0579156 Z" id="Fill-117" fill="#FAFAFA"></path>
            </g>
        </g>
    </g>
</svg>

<svg width="32px" height="32px" version="1.1" viewBox="0 0 32 32" xmlns="http://www.w3.org/2000/svg">
 <g fill="none" fill-rule="evenodd">
  <g>
   <rect x=".5" y=".5" width="31" height="31" rx="3" stroke="#f00"/>
   <path d="m24.073 19.049c-0.26198-0.30144-1.0804-0.22276-1.3433 0.0797v2.8162h-3.5165l-3.1077-4.9447-1.1059 1.6666 3.3345 5.2288h4.3956v2.9347c0.26286 0.30144 1.0813 0.16758 1.3433-0.13488l3.7301-3.277c0.26198-0.30144 0.26198-0.78988 0-1.0923zm-1.4029-9.3004v2.5539c0.26583 0.27933 1.0936 0.3962 1.3585 0.11686l3.7723-3.047c0.26494-0.28123 0.26494-0.73633 0-1.0166l-3.7723-3.0479c-0.26494-0.28028-1.0927-0.4418-1.3585-0.16152v2.7021h-4.4454l-9.7798 14.252h-3.5563c-0.49166 0-0.88907 0.35439-0.88907 0.8741 0 0.51876 0.39741 1.0261 0.88907 1.0261h4.4454l9.7798-14.252zm-17.749 0.30955h3.6863l3.2328 4.9421 1.1593-1.6782s-3.2365-4.9894-3.4706-5.3218h-4.6078c-0.50963 0-0.92156 0.54946-0.92156 1.1113 0 0.56284 0.41194 0.94664 0.92156 0.94664z" fill="#f00"/>
  </g>
 </g>
</svg>
